X:1
T:[ID 5-29]
T:[ID 5-29]
T:Bezeichnung standardisiert: Lichtertanz; Fechten Tantz oder [Text] Tantz In dieser Quelle auch als: F\"ursten Tantz 8. In dieser Quelle auch als: Stich Tantz In anderer Quelle: Lichtertanz - Hs. des "Onkel Ewert" 1870 (Anm. S. Wascher);  Fechtler - Hs. aus Arendsee (Anm. S. Wascher);
T:Urheber unbekannt Datum in der hier transkribierten schriftlichen Quelle: 1792
C:Urheber unbekannt
C:Datum in der hier transkribierten schriftlichen Quelle: 1792
L:1/8
M:2/4
K:F
V:1 treble 
V:1
 g | B2 A2 | G/F/G/A/ GD | GABc | d3 g | B2 A2 | G/F/G/A/ GD | GABc | d3 :: B | A2 d2 | DD/E/ D2 | %12
 DEFG | A3 F | GABc | d2 z g | d2 z g | d2 z g | fedc | Bcdc | BA/G/ A/c/A/F/ | G3 :| %22

